X: 1
T: Ragtime Annie - D
R: reel
M: 4/4
L: 1/8
K: Dmaj
|:DFAF B2AF|DFAF B2AF|DFDF B2AF|Ac2A c2B2|
|:a2ab afdB|A2A2 A2fg|a2a2 g2f2|B6 ef|
K:G
|:B2B2 BGAB|cBcd c2de|f2f2 fdef|gfga g2GA|

